img/icon-breasts.svg

<svg width="64" height="76" viewBox="0 0 64 76" fill="none" xmlns="http://www.w3.org/2000/svg">
<path d="M51.9346 75.3804C52.8577 73.0604 54.9716 67.5404 55.3061 65.8604C56.1223 63.9137 56.0687 48.3936 55.5202 46.9269C55.5202 46.9269 62.0359 44.1136 59.5875 37.4068C57.5806 32.5935 50.222 31.5268 51.8543 24.6734C52.9113 21.1801 55.8814 18.4201 57.2327 17.2067L62.959 12.2067L52.9113 6.41998C52.9113 6.41998 42.4888 9.5 41.5122 12.3134C39.3982 13.8067 35.2106 13.2867 35.2106 13.2867C35.2106 13.2867 33.6318 6.57998 34.2874 4.68664C34.5282 3.97997 31.5714 11.4467 31.5714 11.4467L32.8157 19.3401L29.016 23.0201L29.6716 30.2201L24.2797 31.7001L22.5271 35.6335C22.5271 35.6335 18.9147 36.8202 16.3726 37.3668C16.3726 37.3668 29.2969 48.7269 26.3669 69.0604C26.3669 69.047 33.3107 72.9404 51.9346 75.3804Z" fill="#F8F9F9" stroke="#646464" stroke-width="0.5" stroke-miterlimit="10"/>
<path d="M48.8307 44.2202C48.8307 44.2202 51.3326 47.7936 55.5069 46.9269" stroke="#646464" stroke-width="0.5" stroke-miterlimit="10"/>
<path d="M24.2398 31.8601C24.2398 31.8601 27.103 34.5135 27.8923 38.9535C28.8958 43.5535 32.0667 45.5535 34.9967 46.1402C37.3514 46.5402 40.3484 47.2869 43.6263 45.0069C46.3958 42.8335 46.155 40.9535 46.3155 38.6735" stroke="#646464" stroke-width="0.5" stroke-miterlimit="10"/>
<path d="M53.8346 57.8471C49.3793 51.5137 40.8568 64.9938 40.3751 70.2871" stroke="#646464" stroke-width="0.5" stroke-miterlimit="10"/>
<path d="M37.2979 36.2734C37.2979 36.2734 38.6492 37.9001 40.2547 37.3535C41.499 36.8601 40.9638 35.7268 40.9638 35.7268" stroke="#646464" stroke-width="0.5" stroke-miterlimit="10"/>
<path d="M56.6576 37.3402C56.6576 37.3402 58.33 38.4736 59.1863 37.7002C59.6144 37.2869 59.213 36.6202 59.213 36.6202" stroke="#646464" stroke-width="0.5" stroke-miterlimit="10"/>
<path d="M22.8884 28.5936L18.7141 43.087L28.802 35.8603L22.8884 28.5936Z" fill="#F7F7F7" stroke="#646464" stroke-width="0.5" stroke-miterlimit="10"/>
<path d="M9.42889 16.7934L12.466 25.7801L24.6812 28.5268L9.42889 16.7934Z" fill="#F7F7F7" stroke="#646464" stroke-width="0.5" stroke-miterlimit="10"/>
<path d="M16.6002 43.8471L17.898 32.2604L5.20111 27.727L16.6002 43.8471Z" fill="#F9F9F9" stroke="#646464" stroke-width="0.5" stroke-miterlimit="10"/>
<path d="M32.8023 40.4869L40.201 32.9402L27.6647 28.7269L32.8023 40.4869Z" fill="#F7F7F7" stroke="#646464" stroke-width="0.5" stroke-miterlimit="10"/>
<path d="M10.1648 9.48679L9.34866 15.7135L23.0222 14.9268L10.1648 9.48679Z" fill="#F7F7F7" stroke="#646464" stroke-width="0.5" stroke-miterlimit="10"/>
<path d="M26.367 19.3133L22.5406 24.1L33.8594 28.7267L26.367 19.3133Z" fill="#F7F7F7" stroke="#646464" stroke-width="0.5" stroke-miterlimit="10"/>
<path d="M12.5195 16.8735L20.828 23.6869L24.253 18.0068L12.5195 16.8735Z" fill="#F7F7F7" stroke="#646464" stroke-width="0.5" stroke-miterlimit="10"/>
<path d="M3.6357 11.9801L1 22.4735L9.95069 27.2335L3.6357 11.9801Z" fill="#F7F7F7" stroke="#646464" stroke-width="0.5" stroke-miterlimit="10"/>
<path d="M6.65935 14.58L7.99727 7.8333L3.04697 3.4866L6.65935 14.58Z" fill="#F7F7F7" stroke="#646464" stroke-width="0.5" stroke-miterlimit="10"/>
<path d="M30.3539 4.54004L27.6647 14.1134L33.2839 13.3001L30.3539 4.54004Z" fill="#F7F7F7" stroke="#646464" stroke-width="0.5" stroke-miterlimit="10"/>
<path d="M33.0432 25.6334L34.1002 18.4201L24.8953 14.5267L33.0432 25.6334Z" fill="#F7F7F7" stroke="#646464" stroke-width="0.5" stroke-miterlimit="10"/>
<path d="M12.68 3.9L2.20404 0.699982L8.77323 6.59335L12.68 3.9Z" fill="#F7F7F7" stroke="#646464" stroke-width="0.5" stroke-miterlimit="10"/>
<path d="M21.5638 10.2201L26.2867 11.2734L28.802 3.8067L21.5638 10.2201Z" fill="#F7F7F7" stroke="#646464" stroke-width="0.5" stroke-miterlimit="10"/>
<path d="M10.9005 8.0601L21.5638 12.0068L16.1853 4.87341L10.9005 8.0601Z" fill="#F7F7F7" stroke="#646464" stroke-width="0.5" stroke-miterlimit="10"/>
</svg>

<svg width="64" height="76" viewBox="0 0 64 76" fill="none" xmlns="http://www.w3.org/2000/svg"><path d="M51.935 75.38c.923-2.32 3.037-7.84 3.371-9.52.816-1.946.763-17.466.214-18.933 0 0 6.516-2.813 4.067-9.52-2.006-4.813-9.365-5.88-7.733-12.734 1.057-3.493 4.027-6.253 5.379-7.466l5.726-5L52.911 6.42S42.49 9.5 41.512 12.313c-2.114 1.494-6.301.974-6.301.974s-1.58-6.707-.924-8.6c.241-.707-2.716 6.76-2.716 6.76l1.245 7.893-3.8 3.68.656 7.2-5.392 1.48-1.753 3.933s-3.612 1.187-6.154 1.734c0 0 12.924 11.36 9.994 31.693 0-.013 6.944 3.88 25.568 6.32z" fill="#F8F9F9" stroke="#646464" stroke-width=".5" stroke-miterlimit="10"/><path d="M48.83 44.22s2.503 3.574 6.677 2.707M24.24 31.86s2.863 2.654 3.652 7.093c1.004 4.6 4.175 6.6 7.105 7.187 2.354.4 5.351 1.147 8.63-1.133 2.769-2.173 2.528-4.053 2.688-6.334m7.52 19.174c-4.456-6.333-12.978 7.147-13.46 12.44" stroke="#646464" stroke-width=".5" stroke-miterlimit="10"/><path d="M37.298 36.273s1.351 1.627 2.957 1.08c1.244-.493.709-1.626.709-1.626m15.694 1.613s1.672 1.134 2.528.36c.428-.413.027-1.08.027-1.08" stroke="#646464" stroke-width=".5" stroke-miterlimit="10"/><path d="M22.888 28.594l-4.174 14.493 10.088-7.227-5.914-7.266zM9.429 16.793l3.037 8.987 12.215 2.747L9.43 16.793z" fill="#F7F7F7" stroke="#646464" stroke-width=".5" stroke-miterlimit="10"/><path d="M16.6 43.847l1.298-11.587-12.697-4.533 11.4 16.12z" fill="#F9F9F9" stroke="#646464" stroke-width=".5" stroke-miterlimit="10"/><path d="M32.802 40.487l7.399-7.547-12.536-4.213 5.137 11.76zm-22.637-31l-.816 6.226 13.673-.786-12.857-5.44zm16.202 9.826L22.541 24.1l11.318 4.627-7.492-9.414zm-13.847-2.44l8.308 6.814 3.425-5.68-11.733-1.134zM3.636 11.98L1 22.474l8.95 4.76L3.637 11.98zm3.024 2.6l1.337-6.747-4.95-4.346L6.659 14.58zM30.354 4.54l-2.69 9.573 5.62-.813-2.93-8.76zm2.689 21.093L34.1 18.42l-9.205-3.893 8.148 11.106zM12.68 3.9L2.204.7l6.57 5.893L12.68 3.9zm8.884 6.32l4.723 1.053 2.515-7.466-7.238 6.413zM10.9 8.06l10.664 3.947-5.379-7.134-5.284 3.187z" fill="#F7F7F7" stroke="#646464" stroke-width=".5" stroke-miterlimit="10"/></svg>
